logo/json.svg

<svg xmlns="http://www.w3.org/2000/svg" viewBox="0 0 24 24"><path d="M12.043,23.968 C12.522,23.964 12.996,23.939 13.469,23.874 C14.552552,23.7333133 15.6113256,23.4428741 16.615,23.011 C18.0257397,22.4056783 19.3118589,21.5437444 20.408,20.469 C21.4171553,19.479573 22.243229,18.3193458 22.848,17.042 C23.3649771,15.9427747 23.7090347,14.7702805 23.868,13.566 C24.017,12.406 24.003,11.22 23.823,10.067 C23.6726757,9.10895365 23.4063873,8.17274651 23.03,7.279 C22.7898971,6.71761718 22.5042781,6.17681411 22.176,5.662 C21.008,3.825 19.315,2.348 17.366,1.362 C16.669998,1.00647627 15.942978,0.715266591 15.194,0.492 L15.189,0.492 C15.308,0.555 15.429,0.624 15.534,0.693 C15.654,0.767 15.773,0.839 15.885,0.918 C16.4539811,1.30004092 16.9770912,1.74631188 17.444,2.248 C18.507,3.393 19.241,4.796 19.662,6.289 C19.946,7.271 20.096,8.287 20.157,9.306 C20.201,10.049 20.201,10.797 20.11,11.535 C19.961,12.805 19.556,14.045 18.882,15.131 C18.3857437,15.9401958 17.7399023,16.6474651 16.979,17.215 C15.735,18.143 14.102,18.697 12.543,18.329 C12.2855955,18.2684746 12.0349832,18.1820335 11.795,18.071 C11.5215192,17.9462977 11.2606537,17.7956052 11.016,17.621 C10.5526541,17.3114157 10.1340687,16.9396014 9.772,16.516 C9.33275503,15.9923714 8.97874849,15.4028105 8.723,14.769 C8.4097461,13.9581155 8.24249942,13.0981832 8.229,12.229 C8.199,10.956 8.454,9.676 9.083,8.559 C9.5043671,7.81550667 10.0697164,7.16346822 10.746,6.641 C10.971,6.463 11.21,6.308 11.45,6.162 L11.466,6.155 C10.9937601,6.04704549 10.5085913,6.00664282 10.025,6.035 C9.60718094,6.06287405 9.19456932,6.14351476 8.797,6.275 C8.438,6.395 8.093,6.545 7.778,6.725 C7.52212672,6.87186029 7.27716001,7.03695382 7.045,7.219 C6.834,7.399 6.625,7.579 6.43,7.774 C5.307,8.927 4.662,10.456 4.408,12.03 C4.258,13.003 4.258,13.99 4.317,14.98 C4.422,16.375 4.708,17.767 5.262,19.042 C5.59942948,19.8300372 6.0538826,20.5626237 6.61,21.215 C7.46095381,22.1977634 8.53490935,22.9624252 9.742,23.445 C10.418118,23.7214075 11.1291674,23.9031238 11.855,23.985 C11.929,24 12.004,24 12.064,24 L12.043,23.968 Z M9.109,23.57 C8.95446439,23.5033042 8.80418028,23.4271603 8.659,23.342 C7.90637303,22.93609 7.21930506,22.4189348 6.621,21.808 C5.527,20.671 4.794,19.242 4.374,17.728 C4.09737224,16.6911296 3.93144503,15.6278547 3.879,14.556 C3.83467041,13.8619635 3.85006035,13.1654013 3.925,12.474 C4.06,11.217 4.42,9.973 5.049,8.894 C5.50103186,8.09800303 6.10717072,7.40007646 6.832,6.841 C7.32810332,6.46078014 7.87860074,6.15738291 8.465,5.941 C9.60045204,5.52990555 10.8414154,5.51404997 11.987,5.896 C12.016,5.896 12.016,5.896 12.032,5.926 C12.047,5.941 12.077,5.941 12.092,5.956 C12.137,5.972 12.196,6.001 12.257,6.03 C12.496,6.15 12.736,6.301 12.961,6.45 C13.867888,7.0850509 14.5912197,7.94808188 15.058,8.952 C15.478,9.866 15.673,10.886 15.689,11.89 C15.703,12.969 15.509,14.047 15.044,15.036 C14.4769231,16.2288887 13.555718,17.2178398 12.406,17.868 C12.496,17.898 12.586,17.913 12.677,17.943 C12.902,17.987 13.126,18.017 13.365,18.017 C14.833,18.062 16.257,17.357 17.305,16.37 C17.5,16.19 17.68,15.995 17.845,15.785 C18.07,15.515 18.28,15.245 18.459,14.962 C18.698,14.587 18.894,14.212 19.073,13.808 C19.3018389,13.273188 19.4724871,12.7153125 19.582,12.144 C19.778,11.14 19.793,10.122 19.731,9.118 C19.596,7.096 19.058,5.073 17.889,3.394 C17.7161456,3.14519893 17.5309126,2.90523038 17.334,2.675 C17.0061028,2.30415923 16.6507664,1.95851684 16.271,1.641 C15.8473391,1.29262191 15.3908658,0.98618534 14.908,0.726 C14.363211,0.475992011 13.7968976,0.275841056 13.216,0.128 L12.916,0.068 C12.707,0.038 12.496,0.024 12.282,0.008 C11.9436516,-0.0070051588 11.6047073,-0.00166219358 11.267,0.024 C10.563,0.069 9.855,0.184 9.155,0.361 C5.799,1.227 2.863,3.566 1.3,6.67 C0.801234899,7.65883071 0.443746879,8.7127808 0.238,9.801 C0.0010694608,11.0456089 -0.0340460448,12.3202342 0.134,13.576 C0.254,14.596 0.508,15.599 0.912,16.553 C1.139,17.123 1.423,17.677 1.737,18.201 C2.831,19.984 4.42,21.437 6.247,22.441 C6.935,22.831 7.655,23.131 8.404,23.385 C8.63,23.459 8.854,23.535 9.093,23.595 L9.109,23.57 Z"/></svg>

<svg viewBox="0 0 24 24" xmlns="http://www.w3.org/2000/svg">
<path fill="currentColor" d="M12.043 23.968c.479-.004.953-.029 1.426-.094a11.805 11.805 0 003.146-.863 12.404 12.404 0 003.793-2.542 11.977 11.977 0 002.44-3.427 11.794 11.794 0 001.02-3.476c.149-1.16.135-2.346-.045-3.499a11.96 11.96 0 00-.793-2.788 11.197 11.197 0 00-.854-1.617c-1.168-1.837-2.861-3.314-4.81-4.3a12.835 12.835 0 00-2.172-.87h-.005c.119.063.24.132.345.201.12.074.239.146.351.225a8.93 8.93 0 011.559 1.33c1.063 1.145 1.797 2.548 2.218 4.041.284.982.434 1.998.495 3.017.044.743.044 1.491-.047 2.229-.149 1.27-.554 2.51-1.228 3.596a7.475 7.475 0 01-1.903 2.084c-1.244.928-2.877 1.482-4.436 1.114a3.916 3.916 0 01-.748-.258 4.692 4.692 0 01-.779-.45 6.08 6.08 0 01-1.244-1.105 6.507 6.507 0 01-1.049-1.747 7.366 7.366 0 01-.494-2.54c-.03-1.273.225-2.553.854-3.67a6.43 6.43 0 011.663-1.918c.225-.178.464-.333.704-.479l.016-.007a5.121 5.121 0 00-1.441-.12 4.963 4.963 0 00-1.228.24c-.359.12-.704.27-1.019.45a6.146 6.146 0 00-.733.494c-.211.18-.42.36-.615.555-1.123 1.153-1.768 2.682-2.022 4.256-.15.973-.15 1.96-.091 2.95.105 1.395.391 2.787.945 4.062a8.518 8.518 0 001.348 2.173 8.14 8.14 0 003.132 2.23 7.934 7.934 0 002.113.54c.074.015.149.015.209.015zm-2.934-.398a4.102 4.102 0 01-.45-.228 8.5 8.5 0 01-2.038-1.534c-1.094-1.137-1.827-2.566-2.247-4.08a15.184 15.184 0 01-.495-3.172 12.14 12.14 0 01.046-2.082c.135-1.257.495-2.501 1.124-3.58a6.889 6.889 0 011.783-2.053 6.23 6.23 0 011.633-.9 5.363 5.363 0 013.522-.045c.029 0 .029 0 .045.03.015.015.045.015.06.03.045.016.104.045.165.074.239.12.479.271.704.42a6.294 6.294 0 012.097 2.502c.42.914.615 1.934.631 2.938.014 1.079-.18 2.157-.645 3.146a6.42 6.42 0 01-2.638 2.832c.09.03.18.045.271.075.225.044.449.074.688.074 1.468.045 2.892-.66 3.94-1.647.195-.18.375-.375.54-.585.225-.27.435-.54.614-.823.239-.375.435-.75.614-1.154a8.112 8.112 0 00.509-1.664c.196-1.004.211-2.022.149-3.026-.135-2.022-.673-4.045-1.842-5.724a9.054 9.054 0 00-.555-.719 9.868 9.868 0 00-1.063-1.034 8.477 8.477 0 00-1.363-.915 9.927 9.927 0 00-1.692-.598l-.3-.06c-.209-.03-.42-.044-.634-.06a8.453 8.453 0 00-1.015.016c-.704.045-1.412.16-2.112.337C5.799 1.227 2.863 3.566 1.3 6.67A11.834 11.834 0 00.238 9.801a11.81 11.81 0 00-.104 3.775c.12 1.02.374 2.023.778 2.977.227.57.511 1.124.825 1.648 1.094 1.783 2.683 3.236 4.51 4.24.688.39 1.408.69 2.157.944.226.074.45.15.689.21z"/></svg>
